packages/kaspersky-hexa-ui-icons/src/iconsSVGs/16x12/FlagHk.svg

<svg width="16" height="12" viewBox="0 0 16 12" fill="none" xmlns="http://www.w3.org/2000/svg">
<g clip-path="url(#clip0_41813_2563)">
<mask id="mask0_41813_2563" style="mask-type:luminance" maskUnits="userSpaceOnUse" x="0" y="0" width="16" height="12">
<rect width="16" height="12" rx="2" fill="white"/>
</mask>
<g mask="url(#mask0_41813_2563)">
<path fill-rule="evenodd" clip-rule="evenodd" d="M0 12H16V0H0V12Z" fill="#F0371D"/>
<path d="M8.84351 6.28583C9.24353 6.15082 9.77898 6.72081 10.0388 7.56024C10.2983 8.39963 10.1841 9.19227 9.78491 9.32977C9.3849 9.46557 8.84964 8.89398 8.5896 8.05438C8.32979 7.2143 8.44354 6.4225 8.84351 6.28583ZM6.45972 7.32782C7.14031 6.80895 7.89307 6.67766 8.14038 7.03485C8.38684 7.3924 8.03536 8.10367 7.35522 8.62274C6.67485 9.14162 5.92228 9.27234 5.67456 8.91571C5.42759 8.55823 5.77919 7.84708 6.45972 7.32782ZM6.88062 7.93719C6.81899 7.84813 6.70004 7.82813 6.61499 7.89227C6.53015 7.95722 6.51134 8.08231 6.573 8.17157C6.63485 8.26029 6.75373 8.28091 6.83862 8.21649C6.92308 8.15163 6.94175 8.02633 6.88062 7.93719ZM9.27124 7.82196C9.17144 7.85612 9.11696 7.96905 9.14917 8.07391C9.18192 8.17828 9.28878 8.23649 9.38843 8.20282C9.48751 8.16837 9.54321 8.05527 9.51147 7.95087C9.47906 7.84635 9.37088 7.78878 9.27124 7.82196ZM4.77905 4.68329C5.02676 4.32655 5.77926 4.45722 6.45972 4.97626C7.13986 5.49529 7.49122 6.20654 7.24487 6.56415C6.99756 6.9214 6.24485 6.79016 5.56421 6.27118C4.88342 5.75182 4.53182 5.04075 4.77905 4.68329ZM9.90601 4.55243C10.7465 4.55282 11.4287 4.91098 11.4294 5.35223C11.4288 5.79353 10.7465 6.15263 9.90601 6.15302C9.06488 6.15299 8.38226 5.79375 8.38159 5.35223C8.38234 4.91076 9.06493 4.55245 9.90601 4.55243ZM5.99683 5.30634C5.91185 5.24151 5.79214 5.26127 5.73022 5.35028C5.66855 5.43958 5.68728 5.56466 5.77222 5.62958C5.85726 5.69411 5.97706 5.67475 6.03882 5.58563C6.1001 5.4966 6.08107 5.37135 5.99683 5.30634ZM10.0964 5.20087C9.99146 5.20091 9.9063 5.28992 9.90601 5.40009C9.90634 5.51022 9.99148 5.60023 10.0964 5.60028C10.2008 5.59953 10.2865 5.50978 10.2869 5.40009C10.2866 5.29036 10.2008 5.20161 10.0964 5.20087ZM7.1394 3.75555C7.39939 2.91563 7.93462 2.34525 8.33472 2.48114C8.73463 2.61801 8.84861 3.4105 8.58862 4.25067C8.32859 5.09061 7.7934 5.66115 7.39331 5.52509C6.99312 5.38855 6.87935 4.59595 7.1394 3.75555ZM8.02515 3.63739C7.92522 3.6033 7.81756 3.66051 7.78491 3.76532C7.75244 3.87027 7.80712 3.98302 7.90698 4.01727C8.00703 4.05141 8.11471 3.99439 8.14722 3.88934C8.17969 3.78439 8.12502 3.67164 8.02515 3.63739Z" fill="white"/>
</g>
</g>
<defs>
<clipPath id="clip0_41813_2563">
<rect width="16" height="12" fill="white"/>
</clipPath>
</defs>
</svg>

<svg xmlns="http://www.w3.org/2000/svg" width="16" height="12" fill="none" viewBox="0 0 16 12"><g clip-path="url(#a)"><mask id="b" width="16" height="12" x="0" y="0" maskUnits="userSpaceOnUse" style="mask-type:luminance"><rect width="16" height="12" fill="#fff" rx="2"/></mask><g mask="url(#b)"><path fill="#f0371d" fill-rule="evenodd" d="M0 12h16V0H0z" clip-rule="evenodd"/><path fill="#fff" d="M8.8435 6.2858c.4-.135.9355.435 1.1953 1.2744.2595.8394.1453 1.632-.2539 1.7696-.4.1358-.9353-.4358-1.1953-1.2754-.2598-.8401-.146-1.6319.254-1.7686m-2.3838 1.042c.6806-.5188 1.4334-.6501 1.6807-.293.2464.3576-.105 1.0689-.7852 1.588-.6803.5188-1.433.6495-1.6806.293-.247-.3576.1046-1.0687.7851-1.588m.421.6094c-.0617-.089-.1807-.109-.2657-.045-.0849.065-.1037.1901-.042.2794.0618.0887.1807.1093.2656.0449.0845-.0649.1032-.1902.042-.2793m2.3905-.1152c-.0998.0341-.1542.147-.122.252.0327.1043.1396.1625.2392.1288.0991-.0344.1548-.1475.123-.252-.0323-.1044-.1405-.162-.2402-.1288M4.779 4.6833c.2478-.3567 1.0003-.226 1.6807.293.6802.519 1.0315 1.2302.7852 1.5878-.2473.3573-1 .226-1.6807-.293-.6808-.5193-1.0324-1.2303-.7851-1.5878m5.127-.1309c.8405.0004 1.5227.3586 1.5234.7998-.0006.4413-.6829.8004-1.5234.8008-.8411 0-1.5237-.3592-1.5244-.8008.0007-.4414.6833-.7997 1.5244-.7998m-3.9092.754c-.085-.0649-.2047-.0451-.2666.0439-.0617.0893-.043.2144.042.2793a.1857.1857 0 0 0 .2666-.044c.0613-.089.0423-.2143-.042-.2793m4.0996-.1055c-.105 0-.1901.089-.1904.1992.0003.1101.0855.2001.1904.2002.1044-.0008.1901-.0905.1905-.2002-.0003-.1097-.0861-.1985-.1905-.1992m-2.957-1.4453c.26-.84.7952-1.4103 1.1953-1.2745.4.137.514.9294.254 1.7696-.2601.84-.7953 1.4105-1.1954 1.2744-.4002-.1365-.514-.9291-.2539-1.7695m.8857-.1182c-.0999-.0341-.2075.0231-.2402.128-.0325.1049.0222.2176.122.2519.1001.0341.2078-.023.2403-.128s-.0222-.2177-.122-.252"/></g></g><defs><clipPath id="a"><path fill="#fff" d="M0 0h16v12H0z"/></clipPath></defs></svg>
